X:24
T:La dbardeuse
R:Polka
C:Trad.
O:France
A:Centre
S:80 airs  danser du centre France - La Chavanne - 1991
S:58
Z:Transcrit et/ou corrig par Michel BELLON - 2005-05-15
Z:Pour toute observation mailto:galouvielle@free.fr
M:2/4
L:1/8
K:G
V:1
G/A/ |: BB B/A/B/c/ | ed de/f/ | gB ed/c/ |1,3 B/c/d/e/ d/c/B/A/ :|2 B/c/B/A/ GG/A/ :|4 B/c/B/A/ Gg/f/ |:
eB ed/c/ | BA dc/B/ | A>B c/d/e/f/ | ed dg/f/ | eB ed/c/ |
BA dc/B/ | A>B cB/A/ |1 GB Gg/f/ :|2 GB G |]
V:2 clef=perc staffscale=0.6 stafflines=1
B |: BB/B/ BB | BB/B/ BB | BB/B/ BB | BB/B/ BB | BB/B/ BB | BB/B/ BB | 
V:3 clef=perc staffscale=0.6 stafflines=1
B |: BB Bz | BB Bz | BB Bz | BB Bz | BB Bz | BB Bz | 
V:4 clef=perc staffscale=0.6 stafflines=1
B |: BB Bz/ B/ | BB Bz/ B/ | BB Bz/ B/ | BB Bz/ B/ | BB Bz/ B/ | BB Bz/ B/ |
%%footer $D   Galouvielle-MBe 2006 \nPolka (France)
